src/lib/packages/icons/src/assets/line/presentation-chart-pie.svg

<svg width="24" height="24" viewBox="0 0 24 24" fill="none" xmlns="http://www.w3.org/2000/svg">
<path d="M21 2.25H3C2.586 2.25 2.25 2.586 2.25 3C2.25 3.414 2.586 3.75 3 3.75H3.75V13C3.75 15.418 5.082 16.75 7.5 16.75H11.25V18.599L8.58401 20.376C8.23902 20.606 8.14601 21.071 8.37601 21.416C8.60501 21.761 9.07099 21.854 9.41599 21.624L12 19.901L14.584 21.624C14.712 21.709 14.856 21.75 15 21.75C15.242 21.75 15.48 21.633 15.625 21.416C15.855 21.071 15.762 20.606 15.417 20.376L12.751 18.599V16.75H16.501C18.919 16.75 20.251 15.418 20.251 13V3.75H21C21.414 3.75 21.75 3.414 21.75 3C21.75 2.586 21.414 2.25 21 2.25ZM18.75 13C18.75 14.577 18.077 15.25 16.5 15.25H7.5C5.923 15.25 5.25 14.577 5.25 13V3.75H18.75V13ZM7.75 9.68994C7.75 8.30194 8.43998 7.034 9.59698 6.297C9.94598 6.076 10.409 6.17698 10.633 6.52698C10.855 6.87598 10.753 7.33999 10.403 7.56299C9.68102 8.02199 9.25 8.81794 9.25 9.68994C9.25 11.1019 10.394 12.25 11.8 12.25C12.664 12.25 13.461 11.817 13.931 11.092C14.157 10.744 14.621 10.646 14.968 10.87C15.316 11.095 15.415 11.559 15.19 11.907C14.442 13.061 13.175 13.749 11.8 13.749C9.56699 13.75 7.75 11.9289 7.75 9.68994ZM12.643 10.191H14.917C15.318 10.191 15.693 10.013 15.948 9.70203C16.203 9.39003 16.303 8.98497 16.223 8.58997C15.883 6.91697 14.583 5.616 12.912 5.276C12.912 5.276 12.912 5.276 12.911 5.276C12.516 5.196 12.113 5.29703 11.802 5.55103C11.49 5.80603 11.311 6.18296 11.311 6.58496V8.85706C11.312 9.59306 11.909 10.191 12.643 10.191ZM12.812 6.79504C13.73 7.05404 14.447 7.77204 14.706 8.69104H12.812V6.79504Z" fill="currentColor"/>
</svg>

<svg xmlns="http://www.w3.org/2000/svg" width="24" height="24" fill="none"><path fill="currentColor" d="M21 2.25H3a.75.75 0 0 0 0 1.5h.75V13c0 2.418 1.332 3.75 3.75 3.75h3.75v1.849l-2.666 1.777a.75.75 0 1 0 .832 1.248L12 19.901l2.584 1.723a.748.748 0 0 0 1.041-.208.75.75 0 0 0-.208-1.04l-2.666-1.777V16.75h3.75c2.418 0 3.75-1.332 3.75-3.75V3.75H21a.75.75 0 0 0 0-1.5ZM18.75 13c0 1.577-.673 2.25-2.25 2.25h-9c-1.577 0-2.25-.673-2.25-2.25V3.75h13.5V13Zm-11-3.31c0-1.388.69-2.656 1.847-3.393a.75.75 0 0 1 .806 1.266A2.502 2.502 0 0 0 9.25 9.69a2.558 2.558 0 0 0 2.55 2.56 2.53 2.53 0 0 0 2.131-1.158.75.75 0 0 1 1.259.815 4.024 4.024 0 0 1-3.39 1.842 4.058 4.058 0 0 1-4.05-4.06Zm4.893.501h2.274a1.332 1.332 0 0 0 1.306-1.601 4.236 4.236 0 0 0-3.311-3.314h-.001a1.328 1.328 0 0 0-1.109.275 1.33 1.33 0 0 0-.491 1.034v2.272a1.335 1.335 0 0 0 1.332 1.334Zm.169-3.396a2.742 2.742 0 0 1 1.894 1.896h-1.894V6.795Z"/></svg>
